X:1
T:A prayer
T:A prayer
T:Giles Farnaby
T:Source : The Whole Book of Psalms---London---Musical Antiquarian Society---1844. Editor : André Vierendeels (23/08/16).
T:Notes : Original clefs : G2, G2, C3, F4 Editorial accidentals above the staff
T:©
T:©
C:Giles Farnaby
Z:©
%%score [ 1 2 3 4 ]
L:1/8
Q:1/4=120
M:4/4
K:C
V:1 treble nm="Soprano" snm="S"
V:2 treble nm="Alto" snm="A"
V:3 treble-8 nm="Tenor" snm="T"
V:4 bass nm="Bass" snm="B"
V:1
 c8 | A4 c4 | B4 A4 | A4 ^G4 | A8 || A8 | A4 B4 | c4 c4 | c4 B4 | c8 || c8 | c4 c4 | d4 e2 f2 | %13
w: Pre-|serve us,|Lord, by|thy dear|word,|from|Turk and|Pope, de-|fend us,|Lord,|which|both would|thrust out _|
 g6 f2 | e8 || c8 | A4 B4- | B2 A2 ^G2 AB | c2 A2 B4 | !fermata!A8 |] %20
w: of his|throne|our|Lord Je-|* sus Christ, _ _|_ thy dear|Son.|
V:2
 E8 | E4 ^F4 | G4 C2 D2 | E6 D2 | ^C8 ||"^-natural" C8 | F4 F4 | G4 G4 | A4 G4 | G8 || A6 ^G2 | %11
w: Pre-|serve us,|Lord, by _|thy dear|word,|from|Turk and|Pope, de-|fend us,|Lord,|which _|
 A2 B2 c2 A2 | B4 c4 | c4 B4 | c8 || z4 A4 | F4 F4 | E4 E4 | E6 D2 | !fermata!^C8 |] %20
w: both _ would _|thrust out|of his|throne|our|Lord Je-|sus Christ,|thy dear|Son.|
V:3
 A8 | c4 A4 | G4 A4 | c4 B4 | A8 || A8 | c4 d4 | e4 c4 | d4 d4 | e8 || e8 | f4 e4 | g4 e4 | d4 d4 | %14
w: Pre-|serve us,|Lord, by|thy dear|word,|from|Turk and|Pope, de-|fend us,|Lord,|which|both would|thrust out|of his|
 c8 || e8 | c4 d4 | c4 B4 | A4 ^G4 | !fermata!A8 |] %20
w: throne|our|Lord Je-|sus Christ,|thy dear|Son.|
V:4
 A,,8 | A,,4 A,,4 | E,4 F,4 | E,4 E,4 | A,,8 || F,8- | F,4 E,2 D,2 | C,4 E,4 | F,4 G,4 | C,8 || %10
w: Pre-|serve us,|Lord, by|thy dear|word,|from|_ Turk and|Pope, de-|fend us,|Lord,|
 A,8 | A,4 A,4 | G,4 G,4 | G,4 G,4 | C,8 || A,,8 | F,4 D,4 | E,4 E,4 | A,,4 E,4 | !fermata!A,,8 |] %20
w: which|both would|thrust out|of his|throne|our|Lord Je-|sus Christ,|thy dear|Son.|

